Kaze-dark-colors/24x24/actions/document-revert.svg

<?xml version="1.0" encoding="UTF-8" standalone="no"?>
<svg xmlns:inkscape="http://www.inkscape.org/namespaces/inkscape" xmlns:sodipodi="http://sodipodi.sourceforge.net/DTD/sodipodi-0.dtd" xmlns="http://www.w3.org/2000/svg" xmlns:svg="http://www.w3.org/2000/svg" width="24" height="24" viewBox="0 0 24 24" fill="none" version="1.1" id="svg3" sodipodi:docname="document-revert.svg" inkscape:version="1.4 (e7c3feb100, 2024-10-09)">
  <defs id="defs1">
    <style id="current-color-scheme" type="text/css">
      .ColorScheme-Text { color:#e6f0f5; }
      .ColorScheme-Highlight { color:#2179cb; }
      .ColorScheme-Background { color:#e4e4e4; }
    </style>
  </defs>
  <sodipodi:namedview id="namedview3" pagecolor="#ffffff" bordercolor="#ffffff" borderopacity="0.25" inkscape:showpageshadow="2" inkscape:pageopacity="0.0" inkscape:pagecheckerboard="0" inkscape:deskcolor="#d1d1d1" inkscape:zoom="33.291667" inkscape:cx="11.984981" inkscape:cy="12" inkscape:window-width="1920" inkscape:window-height="1008" inkscape:window-x="0" inkscape:window-y="0" inkscape:window-maximized="1" inkscape:current-layer="svg3"/>
  <g clip-path="url(#clip0_1168_183)" id="g3">
    <path id="path3" d="m 14,12 -2,2 2,2 M 14,4 v 3 c 0,0.55228 0.4477,1 1,1 h 3 m 0,4 V 7.85714 C 18,7.58347 17.8878,7.32175 17.6897,7.13301 l -3,-2.85715 C 14.5037,4.09877 14.2568,4 14,4 H 7 C 6.44772,4 6,4.44772 6,5 v 14 c 0,0.5523 0.44772,1 1,1 h 8 c 0,0 0,0 0,0 0,0 3,0 3,-3 0,-3 -3,-3 -3,-3 0,0 0,0 0,0 h -2" style="stroke:#ffffff;stroke-opacity:1;stroke-linejoin:round;stroke-linecap:round;stroke-width:1.2;stroke-dasharray:none"/>
    <path id="path3" d="m 14,12 -2,2 2,2 M 14,4 v 3 c 0,0.55228 0.4477,1 1,1 h 3 m 0,4 V 7.85714 C 18,7.58347 17.8878,7.32175 17.6897,7.13301 l -3,-2.85715 C 14.5037,4.09877 14.2568,4 14,4 H 7 C 6.44772,4 6,4.44772 6,5 v 14 c 0,0.5523 0.44772,1 1,1 h 8 c 0,0 0,0 0,0 0,0 3,0 3,-3 0,-3 -3,-3 -3,-3 0,0 0,0 0,0 h -2" style="stroke:currentColor;opacity:0.5;stroke-linejoin:round;stroke-linecap:round;stroke-width:1.2;stroke-dasharray:none" class="ColorScheme-Highlight"/>
  </g>
  <defs id="defs3">
    <clipPath id="clip0_1168_183">
      <rect width="24" height="24" fill="white" id="rect3"/>
    </clipPath>
  </defs>
</svg>

<svg width="24" height="24" viewBox="0 0 24 24" fill="none" xmlns="http://www.w3.org/2000/svg">
<g clip-path="url(#clip0_3017_1395)">
<mask id="mask0_3017_1395" style="mask-type:luminance" maskUnits="userSpaceOnUse" x="0" y="0" width="24" height="24">
<path d="M24 0H0V24H24V0Z" fill="white"/>
</mask>
<g mask="url(#mask0_3017_1395)">
<path d="M18 12V7.85714C18 7.58347 17.8878 7.32175 17.6897 7.13301L14.6897 4.27586C14.5037 4.09877 14.2568 4 14 4H7C6.44772 4 6 4.44772 6 5V19C6 19.5523 6.44772 20 7 20H15C15 20 18 20 18 17C18 14 15 14 15 14H13" stroke="#DDDDDD" stroke-width="1.2" stroke-linecap="round"/>
<path d="M14 4V7C14 7.55228 14.4477 8 15 8H18" stroke="#DDDDDD" stroke-width="1.2" stroke-linecap="round" stroke-linejoin="round"/>
<path d="M14 12L12 14L14 16" stroke="#DDDDDD" stroke-linecap="round" stroke-linejoin="round"/>
</g>
</g>
<defs>
<clipPath id="clip0_3017_1395">
<rect width="24" height="24" fill="white"/>
</clipPath>
</defs>
</svg>
